!!!!SEGMENT: pl-kk--kk-i-324--003_casali-giovanni-battista--in-hac-festiva-die-recitativo.krn
!!!cenid: 17xx:2134
!!!COM: Casali, Giovanni Battista
!!!COM-rism: pe30000607
!!!CDT: 1715-1792/07/06
!!!CNT: Italian
!!!OTL: In hac festiva die – Recitativo
!!!PDT:
!!!AGN: Sacred
!!!SMS-siglum: PL-Kk
!!!SMS-shelfmark: Kk.I.324
!!!NIFC-rismID: 1001146199
!!!URL-scan: http://repozytorium.nifc.pl/skany/pl-kk-nut--i-324
!!!ONB-nifc: UWAGA: części: 1. In hac festiva die (Recitativo), 2. Iam canorus (Allegro), 3. Tristitie ergo mortales (Recitativo), 4. Caelesti sacrate (Andante), 5. Alleluia (Allegro)
!!!SMS-variant:
!!!SMS-altvar:
**kern	**fba	**kern	**text	**kern	**kern	**kern
*part5	*part5	*part4	*part4	*part3	*part2	*part1
*staff5	*staff5	*staff4	*staff4	*staff3	*staff2	*staff1
*group2	*	*group2	*	*group1	*group1	*group1
*I"[Organo]	*	*I"Baſso	*	*I"Viola	*I"Violino Secondo	*I"Violino Primo
*I'[org]	*	*I'B	*	*I'vla	*I'vl II	*I'vl I
*clefF4	*	*clefF4	*	*clefC3	*clefG2	*clefG2
*k[]	*	*k[]	*	*k[]	*k[]	*k[]
*M4/4	*	*M4/4	*	*M4/4	*M4/4	*M4/4
*met(c)	*	*met(c)	*	*met(c)	*met(c)	*met(c)
*	*below	*	*	*	*	*
=1	=1	=1	=1	=1	=1	=1
!	!	!	!	!LO:TX:a:t=[Tacet]	!LO:TX:a:t=[Tacet]	!LO:TX:a:t=[Tacet]
[1G	.	4r	.	1ryy	1ryy	1ryy
.	.	8r	.	.	.	.
.	.	8D\	Tri-	.	.	.
.	.	16.G\	-sti-	.	.	.
.	.	32G\	-ti-	.	.	.
.	.	8G\	-ae	.	.	.
.	.	8G\	er-	.	.	.
.	.	16G\	-go	.	.	.
.	.	16B\	mor-	.	.	.
=2	=2	=2	=2	=2	=2	=2
1G]	.	4G\	-ta-	1ryy	1ryy	1ryy
.	.	4G\	-leſ	.	.	.
.	.	8r	.	.	.	.
.	.	8G\	re-	.	.	.
.	.	8A\	-pul-	.	.	.
.	.	8B\	-sa	.	.	.
=3	=3	=3	=3	=3	=3	=3
[>2C#X/	.	4A\	nu-	1ryy	1ryy	1ryy
.	.	4A\	-be	.	.	.
!LO:LB:g=original	!	!LO:LB:g=original	!	!	!	!
2C#/_>	.	8r	.	.	.	.
.	.	8E\	in-	.	.	.
.	.	8A\	-gen-	.	.	.
.	.	8G#X\	-ti	.	.	.
=4	=4	=4	=4	=4	=4	=4
1C#_>	.	8.A\	pla-	1ryy	1ryy	1ryy
.	.	16A\	-u-	.	.	.
.	.	8A\	-su	.	.	.
.	.	8A\	cer-	.	.	.
.	.	8A\	-ta-	.	.	.
.	.	8E\	-tim	.	.	.
.	.	8E\	no-	.	.	.
.	.	8F#X\	-va	.	.	.
=5	=5	=5	=5	=5	=5	=5
2C#/]	.	8G\	gau-	1ryy	1ryy	1ryy
.	.	8G\	-dia	.	.	.
.	.	8G\	ce-	.	.	.
.	.	8F#X\	-le-	.	.	.
[>2D/	#3	8D\	-bra-	.	.	.
.	.	8D\	-te	.	.	.
.	.	4r	.	.	.	.
!LO:PB:g=original	!	!LO:PB:g=original	!	!	!	!
=6	=6	=6	=6	=6	=6	=6
1D_	.	4.A\	se	1ryy	1ryy	1ryy
.	.	8A\	hu-	.	.	.
.	.	16F#X\	-mi-	.	.	.
.	.	16F#\	-li-	.	.	.
.	.	8F#\	-a	.	.	.
.	.	8G\	mi-	.	.	.
.	.	8A\	-gra	.	.	.
=7	=7	=7	=7	=7	=7	=7
*2\right	*	*	*	*	*	*
2D\]	.	16A\	Tar-	1ryy	1ryy	1ryy
.	.	16D\	-ta-	.	.	.
.	.	8D\	-ra	.	.	.
.	.	8r	.	.	.	.
.	.	8F#X\	co-	.	.	.
[2D#X\	.	4B\	-ru-	.	.	.
.	.	8.B\	-sco	.	.	.
.	.	16B\	di-	.	.	.
=8	=8	=8	=8	=8	=8	=8
2D#\_	.	8B\	-vi-	1ryy	1ryy	1ryy
.	.	8F#X\	-ni	.	.	.
.	.	8F#\	Du-	.	.	.
.	.	8G\	-ciſ	.	.	.
!LO:LB:g=original	!	!LO:LB:g=original	!	!	!	!
2D#\]	.	16A\	gla-	.	.	.
.	.	16A\	-di-	.	.	.
.	.	8A\	-o	.	.	.
.	.	8A\	su-	.	.	.
.	.	8G\	-bie-	.	.	.
=9	=9	=9	=9	=9	=9	=9
[1E	.	8E\	-ce-	1ryy	1ryy	1ryy
.	.	8E\	-re	.	.	.
.	.	8r	.	.	.	.
.	.	16G\	se-	.	.	.
.	.	16B\	-que	.	.	.
.	.	8B\	vi-	.	.	.
.	.	8E\	-cta	.	.	.
.	.	16r	.	.	.	.
.	.	16G\	po-	.	.	.
.	.	16F#X\	-nen-	.	.	.
.	.	16E\	-do	.	.	.
!LO:LB:g=original	!	!LO:LB:g=original	!	!	!	!
=10	=10	=10	=10	=10	=10	=10
2E\]	.	4A#X\	ar-	1ryy	1ryy	1ryy
.	.	8A#\	-ma	.	.	.
.	.	8B\	de-	.	.	.
4r	.	8F#X\	-de-	.	.	.
.	.	8F#\	-re.	.	.	.
4F#X\	#3	4r	.	.	.	.
=11	=11	=11	=11	=11	=11	=11
4BB/	.	1r;	.	1ryy	1ryy	1ryy
4r	.	.	.	.	.	.
!LO:TX:b:t=Siequel Aria	!	!	!	!	!	!
2r;	.	.	.	.	.	.
==	==	==	==	==	==	==
*-	*-	*-	*-	*-	*-	*-
!!!system-decoration: [g1][g2]
!!!RDF**kern: > = above
!!!RDF**kern: < = below
!!!ENC: Andrzej Kubiczek
!!!END: 2021-03-31
!!!ENC: Katarzyna Serwa
!!!END: 2021-03-17
